X: 011
T: The Princess of Wales's Strathspey
C: by William Campbell
O: 1795
%R: strathspey
Z: 2018 John Chambers <jc:trillian.mit.edu>
B: Wm. Campbell "10th Book of New and Favorite Country Dances, Strathey Reels" 1795 p.1
F: https://archive.org/details/campbellstenthbo00camp
M: C|
L: 1/16
K: Bb
%%slurgraces yes
%%graceslurs yes
% - - - - - - - - - - - - - - - - - - - - - - - - -
% Voice 1 arranged for small-scale proofreading
V: 1 staves=2
D2 |\
B,F3{DEF}F3D F3B,{DEF}F3D | C2c2 BAGF G3CG3F |\
[1 B,F3{DEF}F3D F3B,F3G | FG3B3c d2B2B2 :|
[2 B,F3{DEF}F3D F3B,F3G | F2f2 edcB d2B2B2 |]\
f2 |\
Bf3d3f B3f edcB | c3ge3g c3g (fe).d.c |\
B3fd3f B3f (edcB) |
F2B2 e2g2 f3Bd3f |\
B3fd3f B3f edcB | c3ge3g c3g fedc |\
g3bf3d e3cd3B | G3B F2(Bc) d2B2B2 :|
% - - - - - - - - - - - - - - - - - - - - - - - - -
% Voice 1 preserves the original staff layout
V: 2 clef=bass middle=d
z2 |\
[b4d4B4][b4d4B4] [b4d4B4][b4d4B4] | [g4c4][g4c4] g2e2 [g4c4] |\
[1 [d4B4][d4B4] [d4B4][d4B4] | [d4B4][b4d4] f2F2B2 :|
[2 [d4B4][d4B4] [d4B4][d4B4] | [d4B4][d4B4] f2F2B2 |]\
z2 |\
[b4d4][d4B4] [d4B4][d4B4] | [c4C4][c4C4] [c4C4]B2F2 |\
[b4d4][b4d4] [b4d4][d4B4] |
[d4B4][g4e4] [b4d4][b4f4] |\
[d4B4][d4B4] [b4d4]b2f2 | [c'4c4][c4C4] [c4C4][c4C4] |\
[b2e2]z2 [b2d2]z2 [a2c2]z2 [b2B2]z2 | [e2E2]z2 [f2F2]z2 B4 B2 :|
% - - - - - - - - - - - - - - - - - - - - - - - - -
%%begintext align
%% 1st Cu Chasse round the 2d & 3d Cu &
%% back again, lead down the middle up
%% again  & Allemande swing corners &
%% foot it & lead outside with your partner.
%%endtext
% - - - - - - - - - - - - - - - - - - - - - - - - -

%%sep 1 1 500
%%sep 1 1 500

